svg/transport/trunk_line.svg

<?xml version="1.0" encoding="UTF-8"?>
<svg width="24px" height="24px" viewBox="0 0 24 24" version="1.1" xmlns="http://www.w3.org/2000/svg" xmlns:xlink="http://www.w3.org/1999/xlink">
    <title>trunk_line</title>
    <g id="Icon" stroke="none" stroke-width="1" fill="none" fill-rule="evenodd">
        <g id="Transport" transform="translate(-48.000000, -288.000000)">
            <g id="trunk_line" transform="translate(48.000000, 288.000000)">
                <path d="M24,0 L24,24 L0,24 L0,0 L24,0 Z M12.5935,23.2578 L12.5819,23.2595 L12.5109,23.295 L12.4919,23.2987 L12.4767,23.295 L12.4057,23.2595 C12.3958,23.2564 12.387,23.259 12.3821,23.2649 L12.378,23.2758 L12.3609,23.7031 L12.3659,23.7235 L12.3769,23.7357 L12.4805,23.8097 L12.4953,23.8136 L12.5071,23.8097 L12.6107,23.7357 L12.6233,23.7197 L12.6267,23.7031 L12.6096,23.2758 C12.6076,23.2657 12.601,23.2593 12.5935,23.2578 Z M12.8584,23.1453 L12.8445,23.1473 L12.6598,23.2397 L12.6499,23.2499 L12.6472,23.2611 L12.6651,23.6906 L12.6699,23.7034 L12.6784,23.7105 L12.8793,23.8032 C12.8914,23.8069 12.9022,23.803 12.9078,23.7952 L12.9118,23.7812 L12.8777,23.1665 C12.8753,23.1546 12.8674,23.147 12.8584,23.1453 Z M12.143,23.1473 C12.1332,23.1424 12.1222,23.1453 12.1156,23.1526 L12.1099,23.1665 L12.0758,23.7812 C12.0751,23.7927 12.0828,23.8019 12.0926,23.8046 L12.1083,23.8032 L12.3092,23.7105 L12.3186,23.7024 L12.3225,23.6906 L12.3404,23.2611 L12.3372,23.2485 L12.3278,23.2397 L12.143,23.1473 Z" id="MingCute" fill-rule="nonzero"></path>
                <path d="M17.8342,4.62461 C18.4673733,4.14974867 19.3157982,4.0957124 19.9997051,4.47304629 L20.1436,4.56051 L21.0549,5.16805 C21.5145,5.4744 21.6386,6.09527 21.3323,6.5548 C21.0477857,6.98150643 20.4921816,7.11905041 20.0462797,6.89124152 L19.9455,6.83215 L19.0342,6.22460698 L16.4311,8.17694 L16.9991737,8.66216056 L16.9991737,8.66216056 L17.5080268,9.11197241 L17.5080268,9.11197241 L18.1770093,9.72471736 L18.1770093,9.72471736 L18.3668,9.90335 L18.3668,9.90335 C18.6257,10.1487 19.0024,10.2716 19.3174,10.4256 C20.2866235,10.8992 20.9220727,11.8536194 20.9934777,12.9197763 L21.0002,13.1209 L21.0002,15.0001 C21.0002,16.597825 19.7513226,17.903764 18.1764773,17.9950075 L18.0002,18.0001 L15.8293,18.0001 C15.4174,19.1652 14.3062,20 13,20 C11.75911,20 10.6942075,19.246593 10.2376667,18.1723247 L10.1707,18.0001 L3.00022,18.0001 L3.00022,16.0001 L10.1707,16.0001 C10.5825,14.8349 11.6937,14 13,14 C14.240985,14 15.3058922,14.7534972 15.7623475,15.8278603 L15.8293,16.0001 L18.0002,16.0001 C18.51305,16.0001 18.9357092,15.614073 18.9934725,15.1167239 L19.0002,15.0001 L19.0002,13.1209 C19.0002,12.7389 18.7825,12.3902 18.4393,12.2225 L18.0022545,12.0107764 C17.6402735,11.8320184 17.2893857,11.6377429 16.9911,11.3551 L16.5371058,10.9317704 L16.5371058,10.9317704 L16.237154,10.6588641 L16.237154,10.6588641 L15.8973951,10.3558668 L15.8973951,10.3558668 L15.5244514,10.030831 L15.5244514,10.030831 L15.1249449,9.69180922 C15.0565148,9.63458746 14.9872538,9.57711846 14.9173,9.51957 C13.9911,8.75758 13.0093,8.037 12.2467,7.66439 C11.5787667,7.33803667 10.7128022,7.24917222 9.88906444,7.20397741 L8.99284366,7.16133543 L8.99284366,7.16133543 L8.71516,7.14471 C7.18786,7.03889571 5.42813959,6.99101204 3.81316752,7.00151869 L3.01949,7.01164 L2.98096,5.01202 C4.58267714,4.98115429 6.39657388,5.0102249 8.04482023,5.09971044 L9.83484565,5.20985931 C10.958132,5.28076491 12.1593154,5.39570692 13.1247,5.86743 C13.55118,6.07579 14.005052,6.3528156 14.4590264,6.66281528 L14.7991,6.90094 L17.8342,4.62461 Z M13.0144,16.0001 L12.9856,16.0001 C12.4399,16.0078 12,16.4525 12,17 C12,17.5523 12.4477,18 13,18 C13.5523,18 14,17.5523 14,17 C14,16.4525 13.5601,16.0078 13.0144,16.0001 Z" id="形状" fill="#09244B"></path>
            </g>
        </g>
    </g>
</svg>

<svg xmlns="http://www.w3.org/2000/svg" width="24" height="24"><g fill="none" fill-rule="evenodd"><path d="M24 0v24H0V0h24ZM12.594 23.258l-.012.002-.071.035-.02.004-.014-.004-.071-.036c-.01-.003-.019 0-.024.006l-.004.01-.017.428.005.02.01.013.104.074.015.004.012-.004.104-.074.012-.016.004-.017-.017-.427c-.002-.01-.009-.017-.016-.018Zm.264-.113-.014.002-.184.093-.01.01-.003.011.018.43.005.012.008.008.201.092c.012.004.023 0 .029-.008l.004-.014-.034-.614c-.003-.012-.01-.02-.02-.022Zm-.715.002a.023.023 0 0 0-.027.006l-.006.014-.034.614c0 .012.007.02.017.024l.015-.002.201-.093.01-.008.003-.011.018-.43-.003-.012-.01-.01-.184-.092Z"/><path fill="#09244B" d="M17.834 4.625A2 2 0 0 1 20 4.473l.144.088.91.607a1 1 0 0 1-1.008 1.723l-.1-.059-.912-.607-2.603 1.952.568.485.509.45.669.613.19.178c.259.246.635.369.95.523a3 3 0 0 1 1.676 2.494l.007.2V15a3 3 0 0 1-2.824 2.995L18 18h-2.17a3.001 3.001 0 0 1-5.592.172L10.17 18H3v-2h7.17a3.001 3.001 0 0 1 5.591-.172l.067.172H18a1 1 0 0 0 .993-.883L19 15v-1.88a1 1 0 0 0-.56-.897l-.438-.212c-.362-.179-.713-.373-1.01-.656l-.455-.423-.3-.273-.34-.303-.373-.325-.4-.34a33.633 33.633 0 0 0-.207-.171c-.926-.762-1.908-1.483-2.67-1.856-.668-.326-1.534-.415-2.358-.46l-.896-.043-.278-.016a67.474 67.474 0 0 0-4.902-.143l-.794.01-.038-2a71.551 71.551 0 0 1 5.064.088l1.79.11c1.123.07 2.324.186 3.29.657.426.209.88.486 1.334.796l.34.238 3.035-2.276ZM13.014 16h-.028a1 1 0 1 0 .028 0Z"/></g></svg>
